X: 14155
T: Froggy's
R: jig
M: 6/8
K: Bminor
|:~B3 BAF|AFE ~D3|~E3 EFE|EcB ~A3|
BAB ~D3|FEF ABc|def dcd|dcd BAF:|
|:GBd efg|dfd ecd|a2b b2a|~g2f efg|fga b2d|
cde f2d|1 f/g/af fef|dcd BAF:|2 fef dcd|BAF cde||

